X:1
T:Heber (Kingsley), CM
T:Heber (Kingsley), CM
T:George Kingsley, 1838
T:Public Domain Courtesy of the Cyber Hymnal™
C:George Kingsley, 1838
Z:Public Domain
Z:Courtesy of the Cyber Hymnal™
%%score ( 1 2 ) ( 3 4 )
L:1/8
Q:1/4=100
M:3/4
K:Bb
V:1 treble 
V:2 treble 
V:3 bass 
V:4 bass 
V:1
 ([B,D][CE]) | [DF]>[DF] [DF]2 D2 | [EG]>[EG] [EG]2 [DF]2 | [Fd][Ec] ([DB][EG]) ([DF][B,D]) | %4
 C4 ([B,D][CE]) | [DF]>[DF] [DF]2 [Fd]2 | [Ec]>[EB] [EG]2 [EG]2 | F[DB] ([Fd][Ec]) ([DB][Ec]) | %8
 [DB]4 |] %9
V:2
 x2 | x4 D2 | x6 | x6 | C4 x2 | x6 | x6 | F x5 | x4 |] %9
V:3
 [B,,B,]2 | [B,,B,]>[B,,B,] [B,,B,]2 [B,,B,]2 | [E,B,]>[E,B,] [E,B,]2 [B,,B,]2 | %3
 [B,,B,][B,,F,] (F,B,) B,2 | [F,A,]4 [B,,B,]2 | [B,,B,]>[B,,B,] [B,,B,]2 [B,,B,]2 | %6
 [E,G,]>[E,G,] [E,B,]2 [E,B,]2 | [D,B,][B,,F,] F,2 [F,,F,]2 | [B,,F,]4 |] %9
V:4
 x2 | x6 | x6 | x2 B,,2 (B,,D,) | x6 | x6 | x6 | x2 F,2 x2 | x4 |] %9

